!!!!SEGMENT: pl-cz--iii-591--003_rygall-ignacy--dum-natus-esset-aria-cape-panis-angelorum.krn
!!!cenid: 17xx:1116
!!!COM: Rygall, Ignacy
!!!COM-rismid: pe30110281
!!!CDT: <1750->1799
!!!CNT:
!!!OPR: Dum natus esset
!!!OTL: Aria - Cape panis angelorum
!!!OMV: 003
!!!PDT: 1775
!!!AGN:
!!!SMS-siglum: PL-CZ
!!!SMS-shelfmark: III-591
!!!SMS-shelfwork: 001-003 M
!!!SMS-variant:
!!!SMS-altvar:
!!!NIFC-rismid: 300001123
!!!URL-scan: http://repozytorium.nifc.pl/skany/pl-cz-nut--iii-591
!!!ONB-nifc: UWAGA: części Dum natus esset: Recitativo – Allegro moderato, Cum sis ipse (Andantino), Aria – Cape panis angelorum, Coro – Ergo sine fine
!!!OMD: andantino
!!!AIN: 2 bass 2 empty 2 violn 2 vox
!!!key: G
**kern	**dynam	**kern	**dynam	**kern	**dynam	**kern	**text	**dynam	**kern	**kern	**kern	**dynam	**kern	**dynam
*part8	*part8	*part7	*part7	*part6	*part6	*part5	*part5	*part5	*part4	*part3	*part2	*part2	*part1	*part1
*staff8	*	*staff7	*	*staff6	*	*staff5	*staff5	*	*staff4	*staff3	*staff2	*	*staff1	*
*Ibass	*	*Ivioln	*	*Ivioln	*	*Ibass	*	*	*Ivox	*Ivox	*Iempty	*	*Iempty	*
*I"Basso	*	*I"Violino Secondo	*	*I"Violino Primo	*	*I"Basso Solo	*	*	*I"Canto 2do	*I"Canto 1mo	*I"Cornu 2do in D:	*	*I"Cornu Imo in D	*
*I'B.	*	*I'Vn II	*	*I'Vn I	*	*I'B. solo	*	*	*I'C. 2	*I'C. 1	*I'C. II	*	*I'C. 1	*
*ICstr	*	*ICstr	*	*ICstr	*	*ICvox	*	*	*ICvox	*ICvox	*ICww	*	*ICww	*
*clefF4	*	*clefG2	*	*clefG2	*	*clefF4	*	*	*clefC3	*clefC1	*clefG2	*	*clefG2	*
*	*	*	*	*	*	*	*	*	*	*	*ITrd-1c-2	*	*ITrd-1c-2	*
*k[f#]	*	*k[f#]	*	*k[f#]	*	*k[f#]	*	*	*k[f#]	*k[f#]	*k[f#]	*	*k[f#]	*
*G:	*	*G:	*	*G:	*	*G:	*	*	*G:	*G:	*G:	*	*G:	*
*M3/4	*	*M3/4	*	*M3/4	*	*M3/4	*	*	*M3/4	*M3/4	*M3/4	*	*M3/4	*
*	*	*	*	*	*	*	*	*below	*	*	*	*	*	*
!	!	!	!	!LO:TX:t=P::global:problem=caudy nut drobnych nieregularnie&colon; prawo, lewo, środek	!	!	!	!	!	!	!	!	!	!
!	!	!LO:TX:t=P:p=p::global:problem	!	!LO:TX:t=P:p=p::global:problem	!	!LO:TX:a:t=32	!	!	!	!	!	!	!LO:TX:a:B:t=un poco lento	!
!	!	!	!LO:DY:t=p&colon;	!	!	!LO:TX:rj:a:t=un poco lento	!	!	!	!	!	!	!	!
4r	.	4r	p	(16dd\LL	p	4r	.	.	4ryy	4ryy	4r	.	4r	.
.	.	.	.	16ee\	.	.	.	.	.	.	.	.	.	.
.	.	.	.	16dd\	.	.	.	.	.	.	.	.	.	.
.	.	.	.	16cc\JJ)	.	.	.	.	.	.	.	.	.	.
=1	=1	=1	=1	=1	=1	=1	=1	=1	=1	=1	=1	=1	=1	=1
!	!	!	!	!	!	!	!	!	!	!	!LO:TX:t=P:: global:problem=caudy ćwierćnut nieregularnie&colon; po prawej i po lewej	!	!	!
!LO:TX:t=P:p=p::global:problem	!	!	!	!	!	!	!	!	!	!	!LO:TX:t=P:p=p::global:problem	!	!LO:TX:t=P:p=p::global:problem	!
4G|\	p	4d|/	.	4b|\	.	0.r	.	.	2.ryy	2.ryy	4dd\	p	4ff#\	p
4G|\	.	4d|/	.	4b|\	.	.	.	.	.	.	4dd\	.	4ff#\	.
4G|\	.	4d|/	.	4b|\	.	.	.	.	.	.	4dd\	.	4ff#\	.
=2	=2	=2	=2	=2	=2	=2	=2	=2	=2	=2	=2	=2	=2	=2
*2\right	*	*	*	*2\right	*	*	*	*	*	*	*2\right	*	*2\right	*
!LO:TX:t=P::problem=caudy półnut po prawej&colon; global	!	!	!	!LO:TX:t=P::problem=caudy półnut po prawej&colon; global	!	!	!	!	!	!	!LO:TX:t=P::problem=caudy półnut po prawej&colon; global	!	!LO:TX:t=P::problem=caudy półnut po prawej&colon; global	!
!LO:TX:t=P:f=f::global:problem	!	!LO:TX:t=P:f=f::global:problem	!	!LO:TX:t=P:f=f::global:problem	!	!	!	!	!	!	!LO:TX:t=P:f=f::global:problem	!	!LO:TX:t=P:f=f::global:problem	!
2A\	f	2d/	f	2cc\	f	.	.	.	2.ryy	2.ryy	2ee\	f	2gg\	f
4r	.	4r	.	(16cc\LL	p	.	.	.	.	.	4r	.	4r	.
.	.	.	.	16dd\	.	.	.	.	.	.	.	.	.	.
.	.	.	.	16cc\	.	.	.	.	.	.	.	.	.	.
.	.	.	.	16b\JJ)	.	.	.	.	.	.	.	.	.	.
=3	=3	=3	=3	=3	=3	=3	=3	=3	=3	=3	=3	=3	=3	=3
4F#\	p	4d/	p	4a|\	.	.	.	.	2.ryy	2.ryy	4a\	p	4ee\	p
4F#\	.	4d/	.	4a|\	.	.	.	.	.	.	4a\	.	4ee\	.
4F#\	.	4d/	.	4a|\	.	.	.	.	.	.	4a\	.	4ee\	.
=4	=4	=4	=4	=4	=4	=4	=4	=4	=4	=4	=4	=4	=4	=4
2G\	f	2d/	.	2b\	f	.	.	.	2.ryy	2.ryy	2dd\	f	2ff#\	f
4r	.	4r	.	(16b\LL	p	.	.	.	.	.	4r	.	4r	.
.	.	.	.	16cc\	.	.	.	.	.	.	.	.	.	.
.	.	.	.	16b\	.	.	.	.	.	.	.	.	.	.
.	.	.	.	16a\JJ)	.	.	.	.	.	.	.	.	.	.
=5	=5	=5	=5	=5	=5	=5	=5	=5	=5	=5	=5	=5	=5	=5
4BB/	p	4d/	p	4g/	.	0.r	.	.	2.ryy	2.ryy	4f#/	p	4dd\	p
4BB/	.	4d/	.	4g/	.	.	.	.	.	.	4f#/	.	4dd\	.
4BB/	.	4d/	.	4g/	.	.	.	.	.	.	4f#/	.	4dd\	.
=6	=6	=6	=6	=6	=6	=6	=6	=6	=6	=6	=6	=6	=6	=6
2C/	f	2e/	f	2a/	f	.	.	.	2.ryy	2.ryy	2ee\	f	2ee\	f
4C/	.	4e/	.	(8cc/L	.	.	.	.	.	.	4r	.	4r	.
.	.	.	.	8a/J)	.	.	.	.	.	.	.	.	.	.
!	!	!	!	!LO:LB:g=original	!	!	!	!	!	!	!LO:LB:g=original	!	!	!
=7	=7	=7	=7	=7	=7	=7	=7	=7	=7	=7	=7	=7	=7	=7
4r	.	2d/	.	(8g/L	.	.	.	.	2.ryy	2.ryy	4r	.	4r	.
.	.	.	.	8f#/)	.	.	.	.	.	.	.	.	.	.
4D\	.	.	.	(8e/	.	.	.	.	.	.	4a/	.	4dd\	.
.	.	.	.	8d/)	.	.	.	.	.	.	.	.	.	.
4D\	.	4c/	.	(8e/	.	.	.	.	.	.	4a/	.	4ee\	.
.	.	.	.	8f#/J)	.	.	.	.	.	.	.	.	.	.
!	!	!LO:LB:g=original	!	!	!	!	!	!	!	!	!	!	!	!
=8	=8	=8	=8	=8	=8	=8	=8	=8	=8	=8	=8	=8	=8	=8
4G\	.	2B/	.	2g\	.	.	.	.	2.ryy	2.ryy	2f#/	.	2dd\	.
4D\	.	.	.	.	.	.	.	.	.	.	.	.	.	.
!	!	!	!	!	!LO:DY:t=p&colon;	!	!	!	!	!	!	!	!	!
4GG/	.	4r	.	(16dd\LL	p	.	.	.	.	.	4r	.	4r	.
.	.	.	.	16ee\	.	.	.	.	.	.	.	.	.	.
.	.	.	.	16dd\	.	.	.	.	.	.	.	.	.	.
.	.	.	.	16cc\JJ)	.	.	.	.	.	.	.	.	.	.
!LO:LB:g=original	!	!	!	!	!	!	!	!	!	!	!	!	!LO:LB:g=original	!
=9	=9	=9	=9	=9	=9	=9	=9	=9	=9	=9	=9	=9	=9	=9
4G\	p	4d/	p	4b|\	.	0.r	.	.	2.ryy	2.ryy	4dd\	p	4ff#\	p
4G\	.	4d/	.	4b|\	.	.	.	.	.	.	4dd\	.	4ff#\	.
4G\	.	4d/	.	4b|\	.	.	.	.	.	.	4dd\	.	4ff#\	.
=10	=10	=10	=10	=10	=10	=10	=10	=10	=10	=10	=10	=10	=10	=10
2A\	f	2d/	f	2cc\	f	.	.	.	2.ryy	2.ryy	2ee\	f	2gg\	f
4r	.	4r	.	(16cc\LL	p	.	.	.	.	.	4r	.	4r	.
.	.	.	.	16dd\	.	.	.	.	.	.	.	.	.	.
.	.	.	.	16cc\)	.	.	.	.	.	.	.	.	.	.
.	.	.	.	16b\JJ	.	.	.	.	.	.	.	.	.	.
=11	=11	=11	=11	=11	=11	=11	=11	=11	=11	=11	=11	=11	=11	=11
4F#\	p	4d/	p	4a|\	.	.	.	.	2.ryy	2.ryy	4a\	p	4ee\	p
4F#\	.	4d/	.	4a|\	.	.	.	.	.	.	4a\	.	4ee\	.
4F#\	.	4d/	.	4a|\	.	.	.	.	.	.	4a\	.	4ee\	.
=12	=12	=12	=12	=12	=12	=12	=12	=12	=12	=12	=12	=12	=12	=12
2G\	f	2d/	f	2b\	f	.	.	.	2.ryy	2.ryy	2dd\	f	2ff#\	f
4r	.	4r	.	16b\LL	p	.	.	.	.	.	4r	.	4r	.
.	.	.	.	(16cc\	.	.	.	.	.	.	.	.	.	.
.	.	.	.	16b\)	.	.	.	.	.	.	.	.	.	.
.	.	.	.	16a\JJ	.	.	.	.	.	.	.	.	.	.
=13	=13	=13	=13	=13	=13	=13	=13	=13	=13	=13	=13	=13	=13	=13
4BB/	p	4d/	p	4g\	.	0.r	.	.	2.ryy	2.ryy	4f#/	p	4dd\	p
4BB/	.	4d/	.	4g\	.	.	.	.	.	.	4f#/	.	4dd\	.
4BB/	.	4d/	.	4g\	.	.	.	.	.	.	4f#/	.	4dd\	.
=14	=14	=14	=14	=14	=14	=14	=14	=14	=14	=14	=14	=14	=14	=14
2C\	f	2e/	f	2a\	f	.	.	.	2.ryy	2.ryy	2ee\	f	2ee\	f
4C\	.	4e/	.	8cc\L	.	.	.	.	.	.	4r	.	4r	.
.	.	.	.	8a\J	.	.	.	.	.	.	.	.	.	.
=15	=15	=15	=15	=15	=15	=15	=15	=15	=15	=15	=15	=15	=15	=15
4r	.	2d/	.	(8g/L	.	.	.	.	2.ryy	2.ryy	4r	.	4r	.
.	.	.	.	8f#/)	.	.	.	.	.	.	.	.	.	.
4D\	.	.	.	(8e/	.	.	.	.	.	.	4a/	.	4dd\	.
.	.	.	.	8d/)	.	.	.	.	.	.	.	.	.	.
4D\	.	4c/	.	(8e/	.	.	.	.	.	.	4a/	.	4ee\	.
.	.	.	.	8f#/J)	.	.	.	.	.	.	.	.	.	.
!	!	!	!	!LO:LB:g=original	!	!	!	!	!	!	!	!	!	!
=16	=16	=16	=16	=16	=16	=16	=16	=16	=16	=16	=16	=16	=16	=16
4G\	.	2B/	.	2g/	.	.	.	.	2.ryy	2.ryy	2f#/	.	2dd\	.
4D\	.	.	.	.	.	.	.	.	.	.	.	.	.	.
4GG/	.	4r	.	4r	.	.	.	.	.	.	4r	.	4r	.
!	!	!	!	!	!	!	!	!	!	!	!LO:LB:g=original	!	!	!
=17	=17	=17	=17	=17	=17	=17	=17	=17	=17	=17	=17	=17	=17	=17
4G\	.	4g/	.	4g\	.	0.r	.	.	2.ryy	2.ryy	0.r	.	0.r	.
8G\L	.	8g/L	.	8g\L	.	.	.	.	.	.	.	.	.	.
8A\	.	8a/	.	8a\	.	.	.	.	.	.	.	.	.	.
8B\	.	8b/	.	8b\	.	.	.	.	.	.	.	.	.	.
8c#X\J	.	8cc#X/J	.	8cc#X\J	.	.	.	.	.	.	.	.	.	.
!LO:LB:g=original	!	!LO:LB:g=original	!	!	!	!	!	!	!	!	!	!	!	!
=18	=18	=18	=18	=18	=18	=18	=18	=18	=18	=18	=18	=18	=18	=18
!	!	!LO:TX:t=P::global:problem=caudy nut drobnych nieregularnie&colon; prawo, lewo, środek	!	!	!	!	!	!	!	!	!LO:TX:a:t=5	!	!	!
4d\	.	4dd\	.	4dd\	.	.	.	.	2.ryy	2.ryy	.	.	.	.
8d\L	.	8dd\L	.	(8dd\L	.	.	.	.	.	.	.	.	.	.
8c#X\J	.	8cc#X\J	.	8cc#X\J)	.	.	.	.	.	.	.	.	.	.
4e\	.	4ee\	.	4ee\	.	.	.	.	.	.	.	.	.	.
=19	=19	=19	=19	=19	=19	=19	=19	=19	=19	=19	=19	=19	=19	=19
4c#X\	.	4cc#X\	.	4cc#X\	.	.	.	.	2.ryy	2.ryy	.	.	.	.
*	*	*2\right	*	*	*	*	*	*	*	*	*	*	*	*
!	!	!LO:TX:t=P::problem=caudy półnut po prawej&colon; global	!	!	!	!	!	!	!	!	!	!	!	!
2A\	.	2a\	.	2a\	.	.	.	.	.	.	.	.	.	.
=20	=20	=20	=20	=20	=20	=20	=20	=20	=20	=20	=20	=20	=20	=20
4cn\	.	4ccn\	.	4ccn\	.	.	.	.	2.ryy	2.ryy	.	.	.	.
8A\L	.	8a\L	.	(8a\L	.	.	.	.	.	.	.	.	.	.
8c\	.	8cc\	.	8cc\J)	.	.	.	.	.	.	.	.	.	.
8B\	.	8b\	.	(8b\L	.	.	.	.	.	.	.	.	.	.
8G\J	.	8g\J	.	8g\J)	.	.	.	.	.	.	.	.	.	.
=21	=21	=21	=21	=21	=21	=21	=21	=21	=21	=21	=21	=21	=21	=21
4F#\	.	4f#/	.	4f#/	.	0.r	.	.	2.ryy	2.ryy	2.r	.	2.r	.
2D\	.	2d/	.	2d/	.	.	.	.	.	.	.	.	.	.
=22	=22	=22	=22	=22	=22	=22	=22	=22	=22	=22	=22	=22	=22	=22
4G\	p	2.d/ 2.B/	p	4dd\	p	.	.	.	2.ryy	2.ryy	2.d/	p	2.dd\	p
4G\	.	.	.	8dd\L	.	.	.	.	.	.	.	.	.	.
.	.	.	.	8cc\	.	.	.	.	.	.	.	.	.	.
4G\	.	.	.	8b\	.	.	.	.	.	.	.	.	.	.
.	.	.	.	8a\J	.	.	.	.	.	.	.	.	.	.
=23	=23	=23	=23	=23	=23	=23	=23	=23	=23	=23	=23	=23	=23	=23
4G\	.	2.d/ 2.B/	.	4g\	.	.	.	.	2.ryy	2.ryy	2.d/	.	2.dd\	.
4G\	.	.	.	8g\L	.	.	.	.	.	.	.	.	.	.
.	.	.	.	8a\	.	.	.	.	.	.	.	.	.	.
4G\	.	.	.	8b\	.	.	.	.	.	.	.	.	.	.
.	.	.	.	8cc\J	.	.	.	.	.	.	.	.	.	.
!	!	!	!	!	!	!	!	!	!	!	!	!	!LO:LB:g=original	!
=24	=24	=24	=24	=24	=24	=24	=24	=24	=24	=24	=24	=24	=24	=24
4G\	.	4B/	.	4dd\	.	.	.	.	2.ryy	2.ryy	2.d/	.	2.dd\	.
4G\	.	4B/	.	4dd\	.	.	.	.	.	.	.	.	.	.
4G\	.	4c/	.	4ee\	.	.	.	.	.	.	.	.	.	.
!	!	!	!	!LO:LB:g=original	!	!	!	!	!	!	!	!	!	!
=25	=25	=25	=25	=25	=25	=25	=25	=25	=25	=25	=25	=25	=25	=25
2G\	.	2B/	.	2dd\	.	0.r	.	.	2.ryy	2.ryy	2d/	.	2dd\	.
4r	.	4r	.	4r	.	.	.	.	.	.	4r	.	4r	.
=26	=26	=26	=26	=26	=26	=26	=26	=26	=26	=26	=26	=26	=26	=26
4G\	f	2.d/ 2.B/	f	4dd\	f	.	.	.	2.ryy	2.ryy	2.d/	f	2.dd\	f
4G\	.	.	.	8dd\L	.	.	.	.	.	.	.	.	.	.
.	.	.	.	8cc\	.	.	.	.	.	.	.	.	.	.
4G\	.	.	.	8b\	.	.	.	.	.	.	.	.	.	.
.	.	.	.	8a\J	.	.	.	.	.	.	.	.	.	.
=27	=27	=27	=27	=27	=27	=27	=27	=27	=27	=27	=27	=27	=27	=27
4G\	.	2.d/ 2.B/	.	4g\	.	.	.	.	2.ryy	2.ryy	2.d/	.	2.dd\	.
4G\	.	.	.	8g\L	.	.	.	.	.	.	.	.	.	.
.	.	.	.	8a\	.	.	.	.	.	.	.	.	.	.
4G\	.	.	.	8b\	.	.	.	.	.	.	.	.	.	.
.	.	.	.	8cc\J	.	.	.	.	.	.	.	.	.	.
!LO:LB:g=original	!	!	!	!	!	!	!	!	!	!	!	!	!	!
=28	=28	=28	=28	=28	=28	=28	=28	=28	=28	=28	=28	=28	=28	=28
*	*	*^	*	*	*	*	*	*	*	*	*	*	*	*
4G\	.	4d/	4c\	.	4a\	.	.	.	.	2.ryy	2.ryy	4a/	.	4ee\	.
4F#\	.	4d/	4c\	.	4a\	.	.	.	.	.	.	4a/	.	4ee\	.
4F#\	.	4d/	4c\	.	4a\	.	.	.	.	.	.	4a/	.	4ee\	.
!	!	!LO:LB:g=original	!	!	!	!	!	!	!	!	!	!	!	!	!
=29	=29	=29	=29	=29	=29	=29	=29	=29	=29	=29	=29	=29	=29	=29	=29
2F#\	.	2d/	2c\	.	2a\	.	0.r	.	.	2.ryy	2.ryy	2a/	.	2ee\	.
4r	.	8d/L	4ryy	p	8b\L	.	.	.	.	.	.	4r	.	8ff#\L	p
.	.	8c/J	.	.	8a\J	.	.	.	.	.	.	.	.	8ee\J	.
*	*	*v	*v	*	*	*	*	*	*	*	*	*	*	*	*
=30	=30	=30	=30	=30	=30	=30	=30	=30	=30	=30	=30	=30	=30	=30
!	!	!	!	!	!	!	!	!	!	!	!LO:TX:t=P:pp=pianissime:problem	!	!	!
4G\	.	4B/	.	4g/	.	.	.	.	2.ryy	2.ryy	4d/	pp	4dd\	.
4D\	.	4B/	.	4g/	.	.	.	.	.	.	4f#/	.	4dd\	.
4BB\	.	4B/	.	4g/	.	.	.	.	.	.	4a/	.	4dd\	.
=31	=31	=31	=31	=31	=31	=31	=31	=31	=31	=31	=31	=31	=31	=31
2GG/	.	2B/	.	2g/	.	.	.	.	2.ryy	2.ryy	4f#/	.	2dd\	.
.	.	.	.	.	.	.	.	.	.	.	4d/	.	.	.
!	!	!LO:TX:t=P:pp=pianis.:global:problem	!LO:DY:rj:t=pianis	!	!LO:DY:rj:t=pianis	!	!	!	!	!	!	!	!	!
4r	.	8d/L	pp	8b/L	pp	.	.	.	.	.	4r	.	8ff#\L	pp
.	.	8c/J	.	8a/J	.	.	.	.	.	.	.	.	8ee\J	.
=32	=32	=32	=32	=32	=32	=32	=32	=32	=32	=32	=32	=32	=32	=32
4G\	pp	4B/	.	4g/	.	.	.	.	2.ryy	2.ryy	4d/	.	4dd\	.
4D\	.	4B/	.	4g/	.	.	.	.	.	.	4f#/	.	4dd\	.
4BB\	.	4B/	.	4g/	.	.	.	.	.	.	4a/	.	4dd\	.
=33	=33	=33	=33	=33	=33	=33	=33	=33	=33	=33	=33	=33	=33	=33
2GG/	.	2B/	.	2g/	.	4r	.	.	2.ryy	2.ryy	2d/	.	2dd\	.
.	.	.	.	.	.	4r	.	.	.	.	.	.	.	.
!	!	!	!	!	!	!LO:TX:t=P::global:problem=caudy nut drobnych nieregularnie&colon; prawo, lewo, środek	!	!	!	!	!	!	!	!
4r	.	4r	.	(16dd\LL	.	(16d\LL	Ca-	.	.	.	4r	.	4r	.
.	.	.	.	16ee\	.	16e\)	.	.	.	.	.	.	.	.
.	.	.	.	16dd\	.	(16d\	.	.	.	.	.	.	.	.
.	.	.	.	16cc\JJ)	.	16c\JJ)	.	.	.	.	.	.	.	.
!LO:PB:g=original	!	!	!	!	!	!	!	!	!	!	!LO:LB:g=original	!	!	!
=34	=34	=34	=34	=34	=34	=34	=34	=34	=34	=34	=34	=34	=34	=34
!	!	!	!	!	!	!LO:TX:t=P:p=p.:problem	!	!	!	!	!	!	!	!
4G\	p	4d/	p	4b\	.	4B|\	-pe	p	2.ryy	2.ryy	0.r	.	0.r	.
4G\	.	4d/	.	4b\	.	4B|\	pa-	.	.	.	.	.	.	.
4G\	.	4d/	.	4b\	.	4B|\	-nis	.	.	.	.	.	.	.
!	!	!	!	!LO:LB:g=original	!	!	!	!	!	!	!	!	!	!
=35	=35	=35	=35	=35	=35	=35	=35	=35	=35	=35	=35	=35	=35	=35
*	*	*	*	*	*	*2\right	*	*	*	*	*	*	*	*
!	!	!	!	!	!	!LO:TX:t=P:f=f.:problem	!	!	!	!	!	!	!	!
!	!	!	!	!	!	!LO:TX:t=P::problem=caudy półnut po prawej&colon; global	!	!	!	!	!	!	!	!
2A\	f	2d/	f	2cc\	f	2c\	An-	f	2.ryy	2.ryy	.	.	.	.
4r	.	4r	.	16cc\LL	p	(16c\LL	-ge-	.	.	.	.	.	.	.
.	.	.	.	(16dd\	.	16d\)	.	.	.	.	.	.	.	.
.	.	.	.	16cc\	.	(16c\	.	.	.	.	.	.	.	.
.	.	.	.	16b\JJ)	.	16B\JJ)	.	.	.	.	.	.	.	.
!	!	!	!	!LO:LB:g=original	!	!	!	!	!	!	!	!	!	!
=36	=36	=36	=36	=36	=36	=36	=36	=36	=36	=36	=36	=36	=36	=36
4F#\	p	4d/	p	4a\	.	4A|\	.	.	2.ryy	2.ryy	.	.	.	.
4F#\	.	4d/	.	4a\	.	4A|\	-lo-	.	.	.	.	.	.	.
4F#\	.	4d/	.	4a\	.	4A'\	-rum	.	.	.	.	.	.	.
=37	=37	=37	=37	=37	=37	=37	=37	=37	=37	=37	=37	=37	=37	=37
2G\	f	2d/	f	2b\	f	2B\	pa-	.	2.ryy	2.ryy	.	.	.	.
4r	.	4r	.	(16b\LL	p	(16B\LL	-nem	.	.	.	.	.	.	.
.	.	.	.	16cc\	.	16c\)	.	.	.	.	.	.	.	.
.	.	.	.	16b\)	.	(16B\	.	.	.	.	.	.	.	.
.	.	.	.	16a\JJ	.	16A\JJ)	.	.	.	.	.	.	.	.
!	!	!	!	!	!	!LO:LB:g=original	!	!	!	!	!	!	!	!
=38	=38	=38	=38	=38	=38	=38	=38	=38	=38	=38	=38	=38	=38	=38
4BB/	p	4d/	p	4g\	.	4G\	hunc	.	2.ryy	2.ryy	0.r	.	0.r	.
4BB/	.	4d/	.	4g\	.	4G\	a	.	.	.	.	.	.	.
4BB/	.	4d/	.	4g\	.	4G\	me	.	.	.	.	.	.	.
!	!	!LO:LB:g=original	!	!	!	!	!	!	!	!	!	!	!	!
=39	=39	=39	=39	=39	=39	=39	=39	=39	=39	=39	=39	=39	=39	=39
2C\	f	2e/	f	2a\	f	2A\	ser-	.	2.ryy	2.ryy	.	.	.	.
4C\	p	4e/	.	8cc\L	.	(8c\L	.	.	.	.	.	.	.	.
.	.	.	.	8a\J	.	8A\J)	.	.	.	.	.	.	.	.
=40	=40	=40	=40	=40	=40	=40	=40	=40	=40	=40	=40	=40	=40	=40
2D\	.	2d/	p	(8g/L	p	(8G\L	-vo-	.	2.ryy	2.ryy	.	.	.	.
.	.	.	.	8f#/)	.	8F#\)	.	.	.	.	.	.	.	.
.	.	.	.	(8e/	.	(8E\	.	.	.	.	.	.	.	.
.	.	.	.	8d/)	.	8D\)	.	.	.	.	.	.	.	.
4D\	.	4c/	.	(8e/	.	(8E\	.	.	.	.	.	.	.	.
.	.	.	.	8f#/J)	.	8F#\J)	.	.	.	.	.	.	.	.
=41	=41	=41	=41	=41	=41	=41	=41	=41	=41	=41	=41	=41	=41	=41
4G\	.	2B/	.	2g/	.	2G\	-rum	.	2.ryy	2.ryy	.	.	.	.
4GG/	.	.	.	.	.	.	.	.	.	.	.	.	.	.
4r	.	4r	.	16dd\LL	.	(16d\LL	ca-	.	.	.	.	.	.	.
.	.	.	.	(16ee\	.	16e\)	.	.	.	.	.	.	.	.
.	.	.	.	16dd\	.	(16d\	.	.	.	.	.	.	.	.
.	.	.	.	16cc\JJ)	.	16c\JJ)	.	.	.	.	.	.	.	.
=42	=42	=42	=42	=42	=42	=42	=42	=42	=42	=42	=42	=42	=42	=42
4G\	p	4d/	p	4b\	.	4B\	-pe	.	2.ryy	2.ryy	4dd\	p	4ff#\	p
4G\	.	4d/	.	4b\	.	4B\	pa-	.	.	.	4dd\	.	4ff#\	.
4G\	.	4d/	.	4b\	.	4B\	-nis	.	.	.	4dd\	.	4ff#\	.
!	!	!	!	!	!	!	!	!	!	!	!	!	!LO:LB:g=original	!
=43	=43	=43	=43	=43	=43	=43	=43	=43	=43	=43	=43	=43	=43	=43
2A\	f	2d/	f	2cc\	f	2c\	An-	.	2.ryy	2.ryy	2ee\	f	2gg\	.
4r	.	4r	.	16cc\LL	p	(16c\LL	-ge-	.	.	.	4r	.	4r	.
.	.	.	.	(16dd\	.	16d\)	.	.	.	.	.	.	.	.
.	.	.	.	16cc\	.	(16c\	.	.	.	.	.	.	.	.
.	.	.	.	16b\JJ)	.	16B\JJ)	.	.	.	.	.	.	.	.
!LO:LB:g=original	!	!	!	!LO:LB:g=original	!	!	!	!	!	!	!	!	!	!
=44	=44	=44	=44	=44	=44	=44	=44	=44	=44	=44	=44	=44	=44	=44
4F#\	p	4d/	p	4a\	.	4A\	.	.	2.ryy	2.ryy	4a\	p	4ee\	p
4F#\	.	4d/	.	4a\	.	4A\	-lo-	.	.	.	4a\	.	4ee\	.
4F#\	.	4d/	.	4a\	.	4A\	-rum	.	.	.	4a\	.	4ee\	.
=45	=45	=45	=45	=45	=45	=45	=45	=45	=45	=45	=45	=45	=45	=45
2G\	f	2d/	f	2b\	f	2B\	pa-	.	2.ryy	2.ryy	2dd\	f	2ff#\	f
4r	.	4r	.	(16b\LL	p	(16B\LL	-nem	.	.	.	4r	.	4r	.
.	.	.	.	16cc\	.	16c\)	.	.	.	.	.	.	.	.
.	.	.	.	16b\)	.	(16B\	.	.	.	.	.	.	.	.
.	.	.	.	16a\JJ	.	16A\JJ)	.	.	.	.	.	.	.	.
!	!	!	!	!	!	!LO:LB:g=original	!	!	!	!	!	!	!	!
=46	=46	=46	=46	=46	=46	=46	=46	=46	=46	=46	=46	=46	=46	=46
4BB/	p	4d/	p	4g/	.	4G\	hunc	.	2.ryy	2.ryy	4f#/	p	4dd\	p
4BB/	.	4d/	.	4g/	.	4G\	a	.	.	.	4f#/	.	4dd\	.
4BB/	.	4d/	.	4g/	.	4G\	me	.	.	.	4f#/	.	4dd\	.
=47	=47	=47	=47	=47	=47	=47	=47	=47	=47	=47	=47	=47	=47	=47
2C/	f	2e/	f	2a\	f	2A\	ser-	.	2.ryy	2.ryy	2ee\	f	2ee\	f
4C/	p	4e/	.	8cc\L	.	(8c\L	.	.	.	.	4r	.	4r	.
.	.	.	.	8a\J	.	8A\J)	.	.	.	.	.	.	.	.
=48	=48	=48	=48	=48	=48	=48	=48	=48	=48	=48	=48	=48	=48	=48
4r	.	2d/	p	(8g/L	p	(8G\L	-vo-	.	2.ryy	2.ryy	4r	.	4r	.
.	.	.	.	8f#/)	.	8F#\)	.	.	.	.	.	.	.	.
4D\	.	.	.	(8e/	.	(8E\	.	.	.	.	4a/	p	4dd\	p
.	.	.	.	8d/)	.	8D\)	.	.	.	.	.	.	.	.
4D\	.	4c/	.	(8e/	.	(8E\	.	.	.	.	4a/	.	4ee\	.
.	.	.	.	8f#/J)	.	8F#\J)	.	.	.	.	.	.	.	.
=49	=49	=49	=49	=49	=49	=49	=49	=49	=49	=49	=49	=49	=49	=49
4G\	.	2B/	.	2g/	.	2G\	-rum	.	2.ryy	2.ryy	2d/	.	2dd\	.
4D\	.	.	.	.	.	.	.	.	.	.	.	.	.	.
4GG/	.	4r	.	4r	.	4r	.	.	.	.	4r	.	4r	.
!	!	!LO:LB:g=original	!	!	!	!	!	!	!	!	!	!	!	!
=50	=50	=50	=50	=50	=50	=50	=50	=50	=50	=50	=50	=50	=50	=50
!	!LO:DY:t=for	!	!	!	!	!	!	!	!	!	!	!	!	!
4G\	f	4g\	f	4g\	.	4G\	a	.	2.ryy	2.ryy	0.r	.	0.r	.
8G\L	.	8g\L	.	8g\L	.	8G\L	me	.	.	.	.	.	.	.
8A\	.	8a\	.	8a\	.	8A\	.	.	.	.	.	.	.	.
8B\	.	8b\	.	8b\	.	8B\	.	.	.	.	.	.	.	.
8c#X\J	.	8cc#X\J	.	8cc#X\J	.	8c#X\J	ser-	.	.	.	.	.	.	.
=51	=51	=51	=51	=51	=51	=51	=51	=51	=51	=51	=51	=51	=51	=51
4d\	.	4dd\	.	4dd\	.	4d\	-vo-	.	2.ryy	2.ryy	.	.	.	.
8d\L	.	8dd\L	.	8dd\L	.	8d\L	.	.	.	.	.	.	.	.
8c#X\J	.	8cc#X\J	.	8cc#X\J	.	8c#X\J	.	.	.	.	.	.	.	.
4e\	.	4ee\	.	4ee\	.	4e\	-rum	.	.	.	.	.	.	.
=52	=52	=52	=52	=52	=52	=52	=52	=52	=52	=52	=52	=52	=52	=52
4c#X\	.	4cc#X\	.	4cc#X\	.	4c#X\	vi-	.	2.ryy	2.ryy	.	.	.	.
2A\	.	2a\	.	2a\	.	2A\	-lis-	.	.	.	.	.	.	.
!LO:LB:g=original	!	!	!	!LO:LB:g=original	!	!	!	!	!	!	!	!	!	!
=53	=53	=53	=53	=53	=53	=53	=53	=53	=53	=53	=53	=53	=53	=53
4G\	.	4g/	.	4g/	.	4G\	.	.	2.ryy	2.ryy	.	.	.	.
8E\L	.	8e/L	.	8e/L	.	8E\L	.	.	.	.	.	.	.	.
8G\	.	8g/	.	8g/	.	8G\	.	.	.	.	.	.	.	.
8F#\	.	8f#/	.	8f#/	.	8F#\	.	.	.	.	.	.	.	.
8D\J	.	8d/J	.	8d/J	.	8D\J	.	.	.	.	.	.	.	.
!	!	!	!	!	!	!LO:LB:g=original	!	!	!	!	!	!	!	!
=54	=54	=54	=54	=54	=54	=54	=54	=54	=54	=54	=54	=54	=54	=54
4AA/	.	4c#X/	.	4c#X/	.	4C/	-si-	.	2.ryy	2.ryy	0.r	.	0.r	.
4A\	.	4A/	.	4A/	.	2AA/	-mo	.	.	.	.	.	.	.
8G\L	.	8.ee\L	.	8.ccc\L	.	.	.	.	.	.	.	.	.	.
8G\J	.	.	.	.	.	.	.	.	.	.	.	.	.	.
.	.	32dd\LL	.	32bb\LL	f	.	.	.	.	.	.	.	.	.
.	.	32ee\JJJ	.	32ccc\JJJ	.	.	.	.	.	.	.	.	.	.
=55	=55	=55	=55	=55	=55	=55	=55	=55	=55	=55	=55	=55	=55	=55
*tremolo	*	*	*	*	*	*	*	*	*	*	*	*	*	*
!	!	!	!	!LO:TX:t=P:p=p:problem	!	!	!	!	!	!	!	!	!	!
8F#\L	p	8ff#\L	p	8ddd\L	p	4A\	hunc	.	2.ryy	2.ryy	.	.	.	.
8F#\	.	8dd\J	.	8aa\J	.	.	.	.	.	.	.	.	.	.
*	*	*tremolo	*	*tremolo	*	*	*	*	*	*	*	*	*	*
!	!	!	!	!LO:TX:t=P:problem=nuta zaczerniona	!	!	!	!	!	!	!	!	!	!
8F#\	.	8dd\L	.	8aa\L	.	4.d\	do	.	.	.	.	.	.	.
8F#\	.	8dd\	.	8aa\	.	.	.	.	.	.	.	.	.	.
8F#\	.	8dd\	.	8aa\	.	.	.	.	.	.	.	.	.	.
8F#\J	.	8dd\J	.	8aa\J	.	8cn\	ti-	.	.	.	.	.	.	.
=56	=56	=56	=56	=56	=56	=56	=56	=56	=56	=56	=56	=56	=56	=56
8G\L	.	8dd\L	.	8bb\L	.	(16B\LL	.	.	2.ryy	2.ryy	.	.	.	.
.	.	.	.	.	.	16cn\	.	.	.	.	.	.	.	.
8G\	.	8dd\	.	8bb\	.	16B\)	.	.	.	.	.	.	.	.
.	.	.	.	.	.	16A\JJ	.	.	.	.	.	.	.	.
8G\	.	8dd\	.	8bb\	.	8B\	.	.	.	.	.	.	.	.
8G\	.	8dd\J	.	8bb\	.	8B\L	.	.	.	.	.	.	.	.
*	*	*Xtremolo	*	*	*	*	*	*	*	*	*	*	*	*
8G\	.	8dd#X\L	.	8bb\	.	8c#X\	.	.	.	.	.	.	.	.
8G\J	.	8dd#\J	.	8bb\J	.	8d#X\J	.	.	.	.	.	.	.	.
=57	=57	=57	=57	=57	=57	=57	=57	=57	=57	=57	=57	=57	=57	=57
*	*	*tremolo	*	*	*	*	*	*	*	*	*	*	*	*
!LO:TX:t=P:problem=wysokość niejasna, nad nutą dopisane "cis"	!	!	!	!	!	!	!	!	!	!	!	!	!	!
8C#X/L	.	8ee\L	.	8bb\L	.	(16e\LL	.	.	2.ryy	2.ryy	.	.	.	.
.	.	.	.	.	.	16f#\	.	.	.	.	.	.	.	.
8C#X/	.	8ee\	.	8bb\	.	16e\	.	.	.	.	.	.	.	.
.	.	.	.	.	.	16d#X\JJ)	.	.	.	.	.	.	.	.
8C#X/	.	8ee\	.	8bb\	.	8e\	.	.	.	.	.	.	.	.
8C#X/	.	8ee\	.	8bb\	.	8d#\L	.	.	.	.	.	.	.	.
8C#X/	.	8ee\	.	8bb\	.	8c#X\	.	.	.	.	.	.	.	.
8C#X/J	.	8ee\J	.	8bb\J	.	8B\J	.	.	.	.	.	.	.	.
=58	=58	=58	=58	=58	=58	=58	=58	=58	=58	=58	=58	=58	=58	=58
8F#\L	.	8ee\L	.	8aa\L	.	(16A\LL	.	.	2.ryy	2.ryy	0.r	.	0.r	.
.	.	.	.	.	.	16B\	.	.	.	.	.	.	.	.
8F#\	.	8ee\	.	8aa\	.	16A\	.	.	.	.	.	.	.	.
.	.	.	.	.	.	16G#X\JJ)	.	.	.	.	.	.	.	.
8F#\	.	8ee\	.	8aa\	.	8A\	.	.	.	.	.	.	.	.
8F#\	.	8ee\J	.	8aa\	.	8A\L	.	.	.	.	.	.	.	.
*	*	*Xtremolo	*	*	*	*	*	*	*	*	*	*	*	*
8F#\	.	8cc#X\L	.	8aa\	.	8B\	.	.	.	.	.	.	.	.
8F#\J	.	8cc#\J	.	8aa\J	.	8c#X\J	.	.	.	.	.	.	.	.
!	!	!LO:LB:g=original	!	!	!	!	!	!	!	!	!	!	!	!
=59	=59	=59	=59	=59	=59	=59	=59	=59	=59	=59	=59	=59	=59	=59
*	*	*tremolo	*	*	*	*	*	*	*	*	*	*	*	*
8BB/L	.	8dd\L	.	8aa\L	.	16d\LL	.	.	2.ryy	2.ryy	.	.	.	.
.	.	.	.	.	.	(16e\	.	.	.	.	.	.	.	.
8BB/	.	8dd\	.	8aa\	.	16d\	.	.	.	.	.	.	.	.
.	.	.	.	.	.	16c#X\JJ)	.	.	.	.	.	.	.	.
8BB/	.	8dd\	.	8aa\	.	8d\	.	.	.	.	.	.	.	.
8BB/	.	8dd\	.	8aa\	.	8c#\L	.	.	.	.	.	.	.	.
8BB/	.	8dd\	.	8aa\	.	8B\	.	.	.	.	.	.	.	.
8BB/J	.	8dd\J	.	8aa\J	.	8A\J	.	.	.	.	.	.	.	.
!	!	!	!	!	!	!LO:LB:g=original	!	!	!	!	!	!	!	!
=60	=60	=60	=60	=60	=60	=60	=60	=60	=60	=60	=60	=60	=60	=60
8E\L	.	8dd\L	.	8gg\L	.	16G\LL	.	.	2.ryy	2.ryy	.	.	.	.
.	.	.	.	.	.	(16A\	.	.	.	.	.	.	.	.
8E\	.	8dd\	.	8gg\	.	16G\	.	.	.	.	.	.	.	.
.	.	.	.	.	.	16F#\JJ)	.	.	.	.	.	.	.	.
8E\	.	8dd\	.	8gg\	.	8G\	.	.	.	.	.	.	.	.
8E\	.	8dd\J	.	8gg\	.	8G\L	.	.	.	.	.	.	.	.
*	*	*Xtremolo	*	*	*	*	*	*	*	*	*	*	*	*
8E\	.	8b\L	.	8gg\	.	8A\	.	.	.	.	.	.	.	.
8E\J	.	8b\J	.	8gg\J	.	8B\J	.	.	.	.	.	.	.	.
!	!	!	!	!LO:LB:g=original	!	!	!	!	!	!	!	!	!	!
=61	=61	=61	=61	=61	=61	=61	=61	=61	=61	=61	=61	=61	=61	=61
*	*	*tremolo	*	*	*	*	*	*	*	*	*	*	*	*
8AA/L	.	8cc#X\L	.	8gg\L	.	16c#X\LL	.	.	2.ryy	2.ryy	.	.	.	.
.	.	.	.	.	.	16d\	.	.	.	.	.	.	.	.
8AA/	.	8cc#X\	.	8gg\	.	16e\	.	.	.	.	.	.	.	.
.	.	.	.	.	.	16d\JJ	.	.	.	.	.	.	.	.
8AA/	.	8cc#X\	.	8gg\	.	8c#\	.	.	.	.	.	.	.	.
8AA/	.	8cc#X\	.	8gg\	.	8B\L	.	.	.	.	.	.	.	.
8AA/	.	8cc#X\	.	8gg\	.	8A\	.	.	.	.	.	.	.	.
8AA/J	.	8cc#X\J	.	8gg\J	.	8G\J	.	.	.	.	.	.	.	.
=62	=62	=62	=62	=62	=62	=62	=62	=62	=62	=62	=62	=62	=62	=62
*Xtremolo	*	*Xtremolo	*	*	*	*	*	*	*	*	*	*	*	*
8D\L	.	8dd\L	.	8ff#\L	.	4F#\	-bi	.	2.ryy	2.ryy	0.r	.	0.r	.
8D\J	.	8dd\J	.	8aa\J	.	.	.	.	.	.	.	.	.	.
*tremolo	*	*tremolo	*	*	*	*	*	*	*	*	*	*	*	*
8F#\L	.	8dd\L	.	8aa\L	.	4.d\	man-	.	.	.	.	.	.	.
8F#\	.	8dd\	.	8aa\	.	.	.	.	.	.	.	.	.	.
8F#\	.	8dd\	.	8aa\	.	.	.	.	.	.	.	.	.	.
8F#\J	.	8dd\J	.	8aa\J	.	8cn\	-du-	.	.	.	.	.	.	.
*	*	*Xtremolo	*	*Xtremolo	*	*	*	*	*	*	*	*	*	*
!LO:LB:g=original	!	!	!	!	!	!	!	!	!	!	!	!	!	!
=63	=63	=63	=63	=63	=63	=63	=63	=63	=63	=63	=63	=63	=63	=63
4r	.	4r	.	4r	.	4A#X\	-can-	.	2.ryy	2.ryy	.	.	.	.
4G\	.	8dd\L	.	8bb\L	.	4B\	-dum	.	.	.	.	.	.	.
.	.	8dd\J	.	8bb\J	.	.	.	.	.	.	.	.	.	.
4GG/	.	4dd\	.	4bb\	.	4r	.	.	.	.	.	.	.	.
=64	=64	=64	=64	=64	=64	=64	=64	=64	=64	=64	=64	=64	=64	=64
!	!	!	!LO:DY:t=for	!	!LO:DY::t=for&colon;	!	!	!	!	!	!	!	!	!
4r	.	8.f#/L	f	8.aa\L	f	8.F#\L	mi	.	2.ryy	2.ryy	.	.	.	.
.	.	16e/Jk	.	16gg\Jk	.	16G\Jk	.	.	.	.	.	.	.	.
4A\	.	4d/	.	4ff#\	.	4A\	Je-	.	.	.	.	.	.	.
4AA/	.	4c#X/	.	4ee\	.	4AA/	-su-	.	.	.	.	.	.	.
=65	=65	=65	=65	=65	=65	=65	=65	=65	=65	=65	=65	=65	=65	=65
8D\L	p	4f#/	p	4dd\	.	2D\	-le	.	2.ryy	2.ryy	.	.	.	.
8D\	.	.	.	.	.	.	.	.	.	.	.	.	.	.
8D\	.	(8a/L	.	(8ff#\L	.	.	.	.	.	.	.	.	.	.
8D\	.	8f#/)	.	8dd\)	p	.	.	.	.	.	.	.	.	.
8D\	.	(8b/	.	(8gg\	.	4r	.	.	.	.	.	.	.	.
8D\J	.	8g/J)	.	8ee\J)	.	.	.	.	.	.	.	.	.	.
=66	=66	=66	=66	=66	=66	=66	=66	=66	=66	=66	=66	=66	=66	=66
!	!	!	!	!	!LO:DY:t=f&colon;	!	!	!	!	!	!	!	!	!
8D\L	f	2a/	f	2aa\	f	0.r	.	.	2.ryy	2.ryy	2a/	f	2a/	f
8D\	.	.	.	.	.	.	.	.	.	.	.	.	.	.
8D\	.	.	.	.	.	.	.	.	.	.	.	.	.	.
8D\J	.	.	.	.	.	.	.	.	.	.	.	.	.	.
*Xtremolo	*	*	*	*	*	*	*	*	*	*	*	*	*	*
8D\L	p	8a/L	p	8ff#\L	.	.	.	.	.	.	4r	.	4r	.
8D\J	.	8f#/J	.	8dd\J	p	.	.	.	.	.	.	.	.	.
!	!	!	!	!	!	!	!	!	!	!	!LO:LB:g=original	!	!	!
=67	=67	=67	=67	=67	=67	=67	=67	=67	=67	=67	=67	=67	=67	=67
*tremolo	*	*	*	*	*	*	*	*	*	*	*	*	*	*
8D\L	.	4b/	.	4gg\	.	.	.	.	2.ryy	2.ryy	2.r	.	2.r	.
8D\	.	.	.	.	.	.	.	.	.	.	.	.	.	.
8D\	.	4g/	.	4ee\	.	.	.	.	.	.	.	.	.	.
8D\	.	.	.	.	.	.	.	.	.	.	.	.	.	.
8D\	.	4e/	.	4cc#X\	.	.	.	.	.	.	.	.	.	.
8D\J	.	.	.	.	.	.	.	.	.	.	.	.	.	.
!	!	!LO:LB:g=original	!	!	!	!	!	!	!	!	!	!	!	!
=68	=68	=68	=68	=68	=68	=68	=68	=68	=68	=68	=68	=68	=68	=68
!	!	!	!	!	!LO:DY:t=f&colon;	!	!	!	!	!	!	!	!	!
8D\L	f	8f#/L	f	8dd\L	f	.	.	.	2.ryy	2.ryy	2a/	.	2a/	.
8D\	.	8e/	.	8cc#X\	.	.	.	.	.	.	.	.	.	.
8D\	.	8f#/	.	8dd\	.	.	.	.	.	.	.	.	.	.
8D\	.	8g/J	.	8ee\J	.	.	.	.	.	.	.	.	.	.
8D\	.	4f#/	.	4dd\	.	.	.	.	.	.	4a/	.	4a/	.
8D\J	.	.	.	.	.	.	.	.	.	.	.	.	.	.
!	!	!	!	!LO:LB:g=original	!	!	!	!	!	!	!	!	!LO:LB:g=original	!
=69	=69	=69	=69	=69	=69	=69	=69	=69	=69	=69	=69	=69	=69	=69
8D\L	p	4f#/	p	4dd\	p	.	.	.	2.ryy	2.ryy	2.r	.	2.r	.
8D\	.	.	.	.	.	.	.	.	.	.	.	.	.	.
8D\	.	8a/L	.	(8ff#\L	.	.	.	.	.	.	.	.	.	.
8D\	.	8f#/	.	8dd\)	.	.	.	.	.	.	.	.	.	.
8D\	.	8b/	.	(8gg\	.	.	.	.	.	.	.	.	.	.
8D\J	.	8g/J	.	8ee\J)	.	.	.	.	.	.	.	.	.	.
=70	=70	=70	=70	=70	=70	=70	=70	=70	=70	=70	=70	=70	=70	=70
!	!	!	!	!	!LO:DY:t=f&colon;	!	!	!	!	!	!	!	!	!
8D\L	f	2a/	f	2aa\	f	0.r	.	.	2.ryy	2.ryy	2a/	.	2a/	.
8D\	.	.	.	.	.	.	.	.	.	.	.	.	.	.
8D\	.	.	.	.	.	.	.	.	.	.	.	.	.	.
8D\J	.	.	.	.	.	.	.	.	.	.	.	.	.	.
*Xtremolo	*	*	*	*	*	*	*	*	*	*	*	*	*	*
!	!	!	!	!	!LO:DY:t=p&colon;	!	!	!	!	!	!	!	!	!
8D\L	p	8a/L	p	8ff#\L	p	.	.	.	.	.	4r	.	4r	.
8D\J	.	8f#/J	.	8dd\J	.	.	.	.	.	.	.	.	.	.
=71	=71	=71	=71	=71	=71	=71	=71	=71	=71	=71	=71	=71	=71	=71
*tremolo	*	*	*	*	*	*	*	*	*	*	*	*	*	*
8D\L	.	4b/	.	4gg\	.	.	.	.	2.ryy	2.ryy	2.r	.	2.r	.
8D\	.	.	.	.	.	.	.	.	.	.	.	.	.	.
8D\	.	4g/	.	4ee\	.	.	.	.	.	.	.	.	.	.
8D\	.	.	.	.	.	.	.	.	.	.	.	.	.	.
8D\	.	4e/	.	4cc#X\	.	.	.	.	.	.	.	.	.	.
8D\J	.	.	.	.	.	.	.	.	.	.	.	.	.	.
=72	=72	=72	=72	=72	=72	=72	=72	=72	=72	=72	=72	=72	=72	=72
8D\L	.	4.f#/	.	4.dd\	.	.	.	.	2.ryy	2.ryy	2a/	.	2a/	.
8D\	.	.	.	.	.	.	.	.	.	.	.	.	.	.
8D\	.	.	.	.	.	.	.	.	.	.	.	.	.	.
8D\	.	8a\	.	8ff#\	.	.	.	.	.	.	.	.	.	.
8D\	.	8g/L	.	8ee\L	.	.	.	.	.	.	4r	.	4r	.
8D\J	.	8e/J	.	8cc#X\J	.	.	.	.	.	.	.	.	.	.
!LO:LB:g=original	!	!	!	!	!	!	!	!	!	!	!	!	!	!
=73	=73	=73	=73	=73	=73	=73	=73	=73	=73	=73	=73	=73	=73	=73
!	!	!	!	!	!LO:DY:t=pianis	!	!	!	!	!	!	!	!	!
8D\L	pp	4.f#/	pp	4.dd\	pp	.	.	.	2.ryy	2.ryy	2a/	pp	2a/	pp
8D\	.	.	.	.	.	.	.	.	.	.	.	.	.	.
8D\	.	.	.	.	.	.	.	.	.	.	.	.	.	.
8D\	.	8b\	.	8ff#\	.	.	.	.	.	.	.	.	.	.
8D\	.	8g/L	.	8ee\L	.	.	.	.	.	.	4r	.	4r	.
8D\J	.	8e/J	.	8cc#X\J	.	.	.	.	.	.	.	.	.	.
*Xtremolo	*	*	*	*	*	*	*	*	*	*	*	*	*	*
=74	=74	=74	=74	=74	=74	=74	=74	=74	=74	=74	=74	=74	=74	=74
4d\	.	4f#/	.	4dd\	.	2.r	.	.	2.ryy	2.ryy	4a/	.	4a/	.
4A\	.	4f#/	.	4dd\	.	.	.	.	.	.	4a/	.	4a/	.
4F#\	.	4f#/	.	4dd\	.	.	.	.	.	.	4a/	.	4a/	.
!	!	!	!	!	!	!LO:LB:g=original	!	!	!	!	!	!	!	!
=75	=75	=75	=75	=75	=75	=75	=75	=75	=75	=75	=75	=75	=75	=75
2D\	.	2f#/ 2A/	.	2dd\	.	4r	.	.	2.ryy	2.ryy	2a/	.	2a/	.
.	.	.	.	.	.	4r	.	.	.	.	.	.	.	.
4r	.	4r	.	4r	.	16d\LL	sed	.	.	.	4r	.	4r	.
.	.	.	.	.	.	(16cn\	.	.	.	.	.	.	.	.
.	.	.	.	.	.	16B\	.	.	.	.	.	.	.	.
.	.	.	.	.	.	16A\JJ)	.	.	.	.	.	.	.	.
=76	=76	=76	=76	=76	=76	=76	=76	=76	=76	=76	=76	=76	=76	=76
*	*	*^	*	*	*	*	*	*	*	*	*	*	*	*
4B\	p	4e/	4d\	p	4g#X/	.	4G#X\	te	.	2.ryy	2.ryy	0.r	.	0.r	.
4B\	.	4e/	4d\	.	4g#/	.	4G#\	da	.	.	.	.	.	.	.
4B\	.	4e/	4d\	.	4g#/	.	4G#\	gus-	.	.	.	.	.	.	.
*	*	*v	*v	*	*	*	*	*	*	*	*	*	*	*	*
=77	=77	=77	=77	=77	=77	=77	=77	=77	=77	=77	=77	=77	=77	=77
!	!	!	!LO:DY:t=for	!	!	!	!	!	!	!	!	!	!	!
2c\	f	2e/	f	2a/	.	2A\	-tan-	.	2.ryy	2.ryy	.	.	.	.
4r	.	4r	.	4r	.	16c\LL	.	.	.	.	.	.	.	.
.	.	.	.	.	.	(16B\	.	.	.	.	.	.	.	.
.	.	.	.	.	.	16A\	.	.	.	.	.	.	.	.
.	.	.	.	.	.	16G\JJ)	.	.	.	.	.	.	.	.
!	!	!LO:LB:g=original	!	!LO:LB:g=original	!	!	!	!	!	!	!	!	!	!
=78	=78	=78	=78	=78	=78	=78	=78	=78	=78	=78	=78	=78	=78	=78
*	*	*^	*	*	*	*	*	*	*	*	*	*	*	*
4A\	p	4d/	4cn\	p	4f#/	.	4F#\	-dum	.	2.ryy	2.ryy	.	.	.	.
4A\	.	4d/	4c\	.	4f#/	.	4F#\	da	.	.	.	.	.	.	.
4A\	.	4d/	4c\	.	4f#/	.	4F#\	gus-	.	.	.	.	.	.	.
*	*	*v	*v	*	*	*	*	*	*	*	*	*	*	*	*
=79	=79	=79	=79	=79	=79	=79	=79	=79	=79	=79	=79	=79	=79	=79
!	!	!LO:TX:t=P:plama:problem	!	!	!	!	!	!	!	!	!	!	!	!
4B\	f	4d/	.	4g/	.	4G\	-tan-	.	2.ryy	2.ryy	.	.	.	.
4F#\	p	4d/	.	4a/	.	4A\	.	.	.	.	.	.	.	.
4G\	.	4d/	.	4b/	.	4B\	.	.	.	.	.	.	.	.
=80	=80	=80	=80	=80	=80	=80	=80	=80	=80	=80	=80	=80	=80	=80
.	.	.	.	8qqdd/	.	8qqB/	.	.	.	.	.	.	.	.
4F#\	.	2d/	.	2cc\	.	2c\	.	.	2.ryy	2.ryy	1.r	.	1.r	.
4D\	.	.	.	.	.	.	.	.	.	.	.	.	.	.
4G\	.	4d/	.	4b\	.	4B\	.	.	.	.	.	.	.	.
=81	=81	=81	=81	=81	=81	=81	=81	=81	=81	=81	=81	=81	=81	=81
2C\	.	2e/	.	(8b\L	.	(8B\L	.	.	2.ryy	2.ryy	.	.	.	.
.	.	.	.	8a\)	.	8A\)	.	.	.	.	.	.	.	.
.	.	.	.	(8cc\	.	(8c\	.	.	.	.	.	.	.	.
.	.	.	.	8b\)	.	8B\)	.	.	.	.	.	.	.	.
4C#X\	.	4e/	.	(8a\	.	(8A\	.	.	.	.	.	.	.	.
.	.	.	.	8g\J)	.	8G\J)	.	.	.	.	.	.	.	.
=82	=82	=82	=82	=82	=82	=82	=82	=82	=82	=82	=82	=82	=82	=82
4D\	.	4d/	.	4f#/	.	4F#\	.	.	2.ryy	2.ryy	2.r	.	2.r	.
4DD/	.	4d/	.	4d/	.	4D\	-dum	.	.	.	.	.	.	.
4r	.	4r	.	4r	.	16d\LL	sed	.	.	.	.	.	.	.
.	.	.	.	.	.	(16e\	.	.	.	.	.	.	.	.
.	.	.	.	.	.	16d\	.	.	.	.	.	.	.	.
.	.	.	.	.	.	16c\JJ)	.	.	.	.	.	.	.	.
!LO:LB:g=original	!	!	!	!	!	!LO:LB:g=original	!	!	!	!	!	!	!	!
=83	=83	=83	=83	=83	=83	=83	=83	=83	=83	=83	=83	=83	=83	=83
4G\	p	4d/	p	4bb\	.	4B\	te	.	2.ryy	2.ryy	4dd\	p	4ff#\	p
4G\	.	4d/	.	4bb\	.	4B\	da	.	.	.	4dd\	.	4ff#\	.
4G\	.	4d/	.	4bb\	.	4B\	gus-	.	.	.	4dd\	.	4ff#\	.
=84	=84	=84	=84	=84	=84	=84	=84	=84	=84	=84	=84	=84	=84	=84
!	!	!	!	!	!LO:DY:t=f&colon;	!	!	!	!	!	!	!	!	!
2A\	f	2d/	f	2ccc\	f	2c\	-tan-	.	2.ryy	2.ryy	2ee\	f	2gg\	f
4r	.	4r	.	4r	.	(16c\LL	.	.	.	.	4r	.	4r	.
.	.	.	.	.	.	16d\)	.	.	.	.	.	.	.	.
.	.	.	.	.	.	(16c\	.	.	.	.	.	.	.	.
.	.	.	.	.	.	16B\JJ)	.	.	.	.	.	.	.	.
!	!	!	!	!	!	!	!	!	!	!	!LO:LB:g=original	!	!	!
=85	=85	=85	=85	=85	=85	=85	=85	=85	=85	=85	=85	=85	=85	=85
!	!	!	!	!	!LO:DY:t=p&colon;	!	!	!	!	!	!	!	!	!
4F#\	p	4d/	p	4aa\	p	4A\	-dum	.	2.ryy	2.ryy	4a\	p	4ee\	p
4F#\	.	4d/	.	4aa\	.	4A\	da	.	.	.	4a\	.	4ee\	.
4F#\	.	4d/	.	4aa\	.	4A\	gus-	.	.	.	4a\	.	4ee\	.
=86	=86	=86	=86	=86	=86	=86	=86	=86	=86	=86	=86	=86	=86	=86
!	!	!	!	!	!LO:DY:t=f&colon;	!	!	!	!	!	!	!	!	!
2G\	.	2d/	f	2bb\	f	2B\	-tan-	.	2.ryy	2.ryy	2dd\	f	2ff#\	f
4r	.	4r	.	16bb\LL	.	(16B\LL	.	.	.	.	4r	.	4r	.
!	!	!	!	!	!LO:DY:t=p&colon;	!	!	!	!	!	!	!	!	!
.	.	.	.	(16ccc\	p	16c\)	.	.	.	.	.	.	.	.
.	.	.	.	16bb\	.	(16B\	.	.	.	.	.	.	.	.
.	.	.	.	16aa\JJ)	.	16A\JJ)	.	.	.	.	.	.	.	.
!	!	!	!	!LO:LB:g=original	!	!	!	!	!	!	!	!	!LO:LB:g=original	!
=87	=87	=87	=87	=87	=87	=87	=87	=87	=87	=87	=87	=87	=87	=87
4BB/	p	4d/	p	4gg\	.	4G\	-dum	.	2.ryy	2.ryy	4f#/	p	4dd\	p
4BB/	.	4d/	.	4gg\	.	4G\	man-	.	.	.	4f#/	.	4dd\	.
4BB/	.	4d/	.	4gg\	.	4G\	-du-	.	.	.	4f#/	.	4dd\	.
=88	=88	=88	=88	=88	=88	=88	=88	=88	=88	=88	=88	=88	=88	=88
!	!	!	!	!	!LO:DY:t=f&colon;	!	!	!	!	!	!	!	!	!
2C\	f	2e/	f	2aa\	f	2A\	-ca-	.	2.ryy	2.ryy	2ee\	f	2ee\	f
4C\	.	4e/	.	8ccc\L	.	8c\L	.	.	.	.	4r	.	4r	.
.	.	.	.	8aa\J	.	8A\J	.	.	.	.	.	.	.	.
!	!	!LO:LB:g=original	!	!	!	!	!	!	!	!	!	!	!	!
=89	=89	=89	=89	=89	=89	=89	=89	=89	=89	=89	=89	=89	=89	=89
!	!	!	!	!	!LO:DY:t=p&colon;	!	!	!	!	!	!	!	!	!
2D\	p	2d/	p	(8gg\L	p	(8G\L	.	.	2.ryy	2.ryy	4r	.	4r	.
.	.	.	.	8ff#\)	.	8F#\)	.	.	.	.	.	.	.	.
.	.	.	.	(8ee\	.	(8E\	.	.	.	.	4dd\	p	4dd\	p
.	.	.	.	8dd\)	.	8D\)	.	.	.	.	.	.	.	.
4D\	.	4c/	.	(8ee\	.	(8E\	.	.	.	.	4a\	.	4ee\	.
.	.	.	.	8ff#\J)	.	8F#\J)	.	.	.	.	.	.	.	.
=90	=90	=90	=90	=90	=90	=90	=90	=90	=90	=90	=90	=90	=90	=90
!	!	!	!	!	!LO:DY:t=f&colon;	!	!	!	!	!	!	!	!	!
4G\	f	4B/	.	4gg\	f	2G\	-dum	.	2.ryy	2.ryy	4f#/	f	4dd\	f
!	!	!	!LO:DY:t=for	!	!	!	!	!	!	!	!	!	!	!
4D\	.	16b\LL	f	16dd\LL	.	.	.	.	.	.	8f#/L	.	4dd\	.
.	.	16cc\	.	(16ee\	.	.	.	.	.	.	.	.	.	.
.	.	16b\	.	16dd\	.	.	.	.	.	.	8f#/J	.	.	.
.	.	16a\JJ	.	16cc\JJ)	.	.	.	.	.	.	.	.	.	.
4GG/	.	4g\	.	4b\	.	4r	.	.	.	.	4d/	.	4dd\	.
!	!	!	!	!	!	!LO:LB:g=original	!	!	!	!	!	!	!	!
=91	=91	=91	=91	=91	=91	=91	=91	=91	=91	=91	=91	=91	=91	=91
*tremolo	*	*tremolo	*	*tremolo	*	*	*	*	*	*	*	*	*	*
!	!	!	!	!	!LO:DY:t=p&colon;	!	!	!	!	!	!	!	!	!
8BB/L	p	8g/L	p	8dd\L	p	4D\	sed	.	2.ryy	2.ryy	0.r	.	0.r	.
8BB/	.	8g/	.	8dd\	.	.	.	.	.	.	.	.	.	.
8BB/	.	8g/	.	8dd\	.	4.G\	te	.	.	.	.	.	.	.
8BB/	.	8g/	.	8dd\	.	.	.	.	.	.	.	.	.	.
8BB/	.	8g/	.	8dd\	.	.	.	.	.	.	.	.	.	.
8BB/J	.	8g/J	.	8dd\J	.	8Fn\	da	.	.	.	.	.	.	.
=92	=92	=92	=92	=92	=92	=92	=92	=92	=92	=92	=92	=92	=92	=92
8C/L	.	8g/L	.	8ee\L	.	16E\LL	fa-	.	2.ryy	2.ryy	.	.	.	.
.	.	.	.	.	.	16Fn\	.	.	.	.	.	.	.	.
8C/	.	8g/	.	8ee\	.	16E\	.	.	.	.	.	.	.	.
.	.	.	.	.	.	16D#X\JJ	.	.	.	.	.	.	.	.
8C/	.	8g/	.	8ee\	.	8E\	.	.	.	.	.	.	.	.
8C/	.	8g/J	.	8ee\	.	8E\L	.	.	.	.	.	.	.	.
*	*	*Xtremolo	*	*	*	*	*	*	*	*	*	*	*	*
8C/	.	8g#X/L	.	8ee\	.	8F\	.	.	.	.	.	.	.	.
8C/J	.	8g#/J	.	8ee\J	.	8G#X\J	.	.	.	.	.	.	.	.
!LO:LB:g=original	!	!LO:LB:g=original	!	!	!	!	!	!	!	!	!	!	!	!
=93	=93	=93	=93	=93	=93	=93	=93	=93	=93	=93	=93	=93	=93	=93
*	*	*tremolo	*	*	*	*	*	*	*	*	*	*	*	*
!	!	!LO:TX:t=P:problem=sześć wykreślonych błędnych taktów	!	!	!	!	!	!	!	!	!	!	!	!
8C\L	.	8a\L	.	8ee\L	.	16A\LL	.	.	2.ryy	2.ryy	.	.	.	.
.	.	.	.	.	.	16B\	.	.	.	.	.	.	.	.
8C\	.	8a\	.	8ee\	.	16A\	.	.	.	.	.	.	.	.
.	.	.	.	.	.	16G#X\JJ	.	.	.	.	.	.	.	.
8C\	.	8a\	.	8ee\	.	8A\	.	.	.	.	.	.	.	.
8C\J	.	8a\	.	8ee\	.	8Gn\L	.	.	.	.	.	.	.	.
*Xtremolo	*	*	*	*	*	*	*	*	*	*	*	*	*	*
8C#X\L	.	8a\	.	8ee\	.	8F#\	.	.	.	.	.	.	.	.
8C#\J	.	8a\J	.	8ee\J	.	8E\J	.	.	.	.	.	.	.	.
=94	=94	=94	=94	=94	=94	=94	=94	=94	=94	=94	=94	=94	=94	=94
*tremolo	*	*	*	*	*	*	*	*	*	*	*	*	*	*
8D\L	.	8a\L	.	8ff#\L	.	16F#\LL	.	.	2.ryy	2.ryy	.	.	.	.
.	.	.	.	.	.	16G\	.	.	.	.	.	.	.	.
8D\	.	8a\	.	8ff#\	.	16F#\	.	.	.	.	.	.	.	.
.	.	.	.	.	.	16E\JJ	.	.	.	.	.	.	.	.
8D\	.	8a\	.	8ff#\	.	8F#\	.	.	.	.	.	.	.	.
8D\	.	8a\J	.	8ff#\	.	8F#\L	.	.	.	.	.	.	.	.
*	*	*Xtremolo	*	*	*	*	*	*	*	*	*	*	*	*
8D\	.	8a#X\L	.	8ff#\	.	8G\	.	.	.	.	.	.	.	.
8D\J	.	8a#\J	.	8ff#\J	.	8A\J	.	.	.	.	.	.	.	.
=95	=95	=95	=95	=95	=95	=95	=95	=95	=95	=95	=95	=95	=95	=95
*	*	*tremolo	*	*	*	*	*	*	*	*	*	*	*	*
8D\L	.	8b\L	.	8ff#\L	.	16B\LL	.	.	2.ryy	2.ryy	0.r	.	0.r	.
.	.	.	.	.	.	16c\	.	.	.	.	.	.	.	.
8D\	.	8b\	.	8ff#\	.	16B\	.	.	.	.	.	.	.	.
.	.	.	.	.	.	16A\JJ	.	.	.	.	.	.	.	.
8D\	.	8b\	.	8ff#\	.	8B\	.	.	.	.	.	.	.	.
8D\J	.	8b\	.	8ff#\	.	8A\L	.	.	.	.	.	.	.	.
*Xtremolo	*	*	*	*	*	*	*	*	*	*	*	*	*	*
8D#X\L	.	8b\	.	8ff#\	.	8G\	.	.	.	.	.	.	.	.
8D#\J	.	8b\J	.	8ff#\J	.	8F#\J	.	.	.	.	.	.	.	.
=96	=96	=96	=96	=96	=96	=96	=96	=96	=96	=96	=96	=96	=96	=96
*tremolo	*	*	*	*	*	*	*	*	*	*	*	*	*	*
8E\L	.	8cc\L	.	8gg\L	.	16G\LL	.	.	2.ryy	2.ryy	.	.	.	.
.	.	.	.	.	.	16A\	.	.	.	.	.	.	.	.
8E\	.	8cc\	.	8gg\	.	16G\	.	.	.	.	.	.	.	.
.	.	.	.	.	.	16F#\JJ	.	.	.	.	.	.	.	.
8E\	.	8cc\	.	8gg\	.	8G\	.	.	.	.	.	.	.	.
8E\	.	8cc\	.	8gg\	.	8G\L	.	.	.	.	.	.	.	.
8E\	.	8cc\	.	8gg\	.	8A\	.	.	.	.	.	.	.	.
8E\J	.	8cc\J	.	8gg\J	.	8B\J	.	.	.	.	.	.	.	.
!	!	!	!	!LO:LB:g=original	!	!LO:LB:g=original	!	!	!	!	!	!	!	!
=97	=97	=97	=97	=97	=97	=97	=97	=97	=97	=97	=97	=97	=97	=97
8E\L	.	8cc\L	.	8gg\L	.	16c\LL	.	.	2.ryy	2.ryy	.	.	.	.
.	.	.	.	.	.	16d\	.	.	.	.	.	.	.	.
8E\	.	8cc\	.	8gg\	.	16c\	.	.	.	.	.	.	.	.
.	.	.	.	.	.	16B\JJ	.	.	.	.	.	.	.	.
8E\	.	8cc\	.	8gg\	.	8c\	.	.	.	.	.	.	.	.
8E\	.	8cc\	.	8gg\	.	8B\L	.	.	.	.	.	.	.	.
8E\	.	8cc\	.	8gg\	.	8A\	.	.	.	.	.	.	.	.
8E\J	.	8cc\J	.	8gg\J	.	8G\J	.	.	.	.	.	.	.	.
=98	=98	=98	=98	=98	=98	=98	=98	=98	=98	=98	=98	=98	=98	=98
8F#\L	.	8cc\L	.	8aa\L	.	16A\LL	.	.	2.ryy	2.ryy	.	.	.	.
.	.	.	.	.	.	16B\	.	.	.	.	.	.	.	.
8F#\	.	8cc\	.	8aa\	.	16A\	.	.	.	.	.	.	.	.
.	.	.	.	.	.	16G#X\JJ	.	.	.	.	.	.	.	.
8F#\	.	8cc\	.	8aa\	.	8A\	.	.	.	.	.	.	.	.
8F#\	.	8cc\J	.	8aa\	.	8A\L	.	.	.	.	.	.	.	.
8F#\	.	8cc#X\L	.	8aa\	.	8B\	.	.	.	.	.	.	.	.
8F#\J	.	8cc#X\J	.	8aa\J	.	8c#X\J	.	.	.	.	.	.	.	.
=99	=99	=99	=99	=99	=99	=99	=99	=99	=99	=99	=99	=99	=99	=99
!LO:TX:t=P:problem=brak kropki	!	!	!	!	!	!	!	!	!	!	!	!	!	!
!LO:N:vis=2	!	!	!	!	!	!	!	!	!	!	!	!	!	!
8F#\L	.	8dd\L	.	8aa\L	.	16d\LL	.	.	2.ryy	2.ryy	0.r	.	0.r	.
.	.	.	.	.	.	16c#X\	.	.	.	.	.	.	.	.
8F#\	.	8dd\	.	8aa\	.	16d\	.	.	.	.	.	.	.	.
.	.	.	.	.	.	16e\JJ	.	.	.	.	.	.	.	.
8F#\	.	8dd\	.	8aa\	.	8d\	.	.	.	.	.	.	.	.
8F#\	.	8dd\	.	8aa\	.	8cn\L	.	.	.	.	.	.	.	.
8F#\	.	8dd\	.	8aa\	.	8B\	.	.	.	.	.	.	.	.
8F#\J	.	8dd\J	.	8aa\J	.	8A\J	.	.	.	.	.	.	.	.
*Xtremolo	*	*Xtremolo	*	*Xtremolo	*	*	*	*	*	*	*	*	*	*
=100	=100	=100	=100	=100	=100	=100	=100	=100	=100	=100	=100	=100	=100	=100
8G\L	.	8dd\L	.	8bb\L	.	8B\L	.	.	2.ryy	2.ryy	.	.	.	.
8G\	.	8dd\	.	8bb\	.	8G\	.	.	.	.	.	.	.	.
8A\	.	8cc\	.	8ff#\	.	8F#\	.	.	.	.	.	.	.	.
8A\	.	8cc\	.	8ff#\	.	8A\J	.	.	.	.	.	.	.	.
8B\	.	8b\	.	8gg\	.	8G\L	-mu-	.	.	.	.	.	.	.
8B\J	.	8b\J	.	8gg\J	.	8B\J	-lo	.	.	.	.	.	.	.
=101	=101	=101	=101	=101	=101	=101	=101	=101	=101	=101	=101	=101	=101	=101
!LO:TX:t=P:problem=mixed beam	!	!	!	!	!	!	!	!	!	!	!	!	!	!
8c\L	.	8e/L	.	8cc/L	.	8c\L	gus-	.	2.ryy	2.ryy	.	.	.	.
8C/	.	8c/	.	8a/	.	8A\J	.	.	.	.	.	.	.	.
8D/	.	8B/	.	8g/	.	4G\	-ta-	.	.	.	.	.	.	.
8D/	.	8B/	.	8g/	.	.	.	.	.	.	.	.	.	.
8D/	.	8c/	.	8a/	.	4AT\	-n-	.	.	.	.	.	.	.
8D/J	.	8c/J	.	8a/J	.	.	.	.	.	.	.	.	.	.
!LO:LB:g=original	!	!	!	!	!	!	!	!	!	!	!	!	!	!
=102	=102	=102	=102	=102	=102	=102	=102	=102	=102	=102	=102	=102	=102	=102
!	!	!	!	!	!LO:DY:t=f&colon;	!	!	!	!	!	!	!	!	!
4G\	f	4B/	f	4g/	f	2G\	-dum	.	2.ryy	2.ryy	.	.	.	.
4GG/	.	8B/L	.	8g/L	.	.	.	.	.	.	.	.	.	.
.	.	8B/J	.	8g/J	.	.	.	.	.	.	.	.	.	.
4GG/	.	4B/	.	4g/	.	4r	.	.	.	.	.	.	.	.
!	!	!LO:LB:g=original	!	!	!	!LO:LB:g=original	!	!	!	!	!	!	!	!
=103	=103	=103	=103	=103	=103	=103	=103	=103	=103	=103	=103	=103	=103	=103
2.G\	p	2.d/ 2.G/	p	4dd\	.	4d\	hunc	.	2.ryy	2.ryy	2.d/	p	2.dd\	p
!	!	!	!	!	!LO:DY:t=p&colon;	!	!	!	!	!	!	!	!	!
.	.	.	.	8dd\L	p	8d\L	do	.	.	.	.	.	.	.
.	.	.	.	8cc\	.	8c\	.	.	.	.	.	.	.	.
.	.	.	.	8b\	.	8B\	ti-	.	.	.	.	.	.	.
.	.	.	.	8a\J	.	8A\J	.	.	.	.	.	.	.	.
=104	=104	=104	=104	=104	=104	=104	=104	=104	=104	=104	=104	=104	=104	=104
2.G\	.	2.d/ 2.G/	.	4g/	.	4G\	-bi	.	2.ryy	2.ryy	2.d/	.	2.dd\	.
.	.	.	.	8g/L	.	8G\L	man-	.	.	.	.	.	.	.
.	.	.	.	8a/	.	8A\	.	.	.	.	.	.	.	.
.	.	.	.	8b/	.	8B\	-du-	.	.	.	.	.	.	.
.	.	.	.	8cc/J	.	8c\J	.	.	.	.	.	.	.	.
=105	=105	=105	=105	=105	=105	=105	=105	=105	=105	=105	=105	=105	=105	=105
4G\	.	4B/	.	4dd\	.	4d\	-can-	.	2.ryy	2.ryy	2.d/	.	2.dd\	.
4G\	.	4B/	.	4dd\	.	4d\	.	.	.	.	.	.	.	.
4G\	.	4c/	.	4ee\	.	4e\	.	.	.	.	.	.	.	.
!	!	!	!	!LO:LB:g=original	!	!	!	!	!	!	!	!	!	!
=106	=106	=106	=106	=106	=106	=106	=106	=106	=106	=106	=106	=106	=106	=106
!	!	!	!	!	!LO:DY:t=f&colon;	!	!	!	!	!	!	!	!	!
2G\	f	2B/	.	2dd\	f	2d\	-dum	.	2.ryy	2.ryy	2d/	f	2dd\	f
4r	.	4r	.	4r	.	4r	.	.	.	.	4r	.	4r	.
!	!	!	!	!	!	!	!	!	!	!	!LO:LB:g=original	!	!	!
=107	=107	=107	=107	=107	=107	=107	=107	=107	=107	=107	=107	=107	=107	=107
2.G\	.	2.d/ 2.G/	.	4dd\	.	4d\	da	.	2.ryy	2.ryy	2.d/	p	2.dd\	p
!	!	!	!	!	!LO:DY:t=p&colon;	!	!	!	!	!	!	!	!	!
.	.	.	.	8dd\L	p	8d\L	fa-	.	.	.	.	.	.	.
.	.	.	.	8cc\	.	8c\	.	.	.	.	.	.	.	.
.	.	.	.	8b\	.	8B\	-mu-	.	.	.	.	.	.	.
.	.	.	.	8a\J	.	8A\J	-lo	.	.	.	.	.	.	.
=108	=108	=108	=108	=108	=108	=108	=108	=108	=108	=108	=108	=108	=108	=108
2.G\	.	2.d/ 2.G/	.	4g/	.	4G\	te	.	2.ryy	2.ryy	2.d/	.	2.dd\	.
.	.	.	.	8g/L	.	8G\L	gus-	.	.	.	.	.	.	.
.	.	.	.	8a/	.	8A\	.	.	.	.	.	.	.	.
.	.	.	.	8b/	.	8B\	.	.	.	.	.	.	.	.
.	.	.	.	8cc/J	.	8c\J	.	.	.	.	.	.	.	.
=109	=109	=109	=109	=109	=109	=109	=109	=109	=109	=109	=109	=109	=109	=109
*	*	*^	*	*	*	*	*	*	*	*	*	*	*	*
!LO:TX:t=P:problem=wykreślony błędny takt	!	!	!	!	!	!	!	!	!	!	!	!	!	!	!
4F#\	.	2d/	2A\	.	4a/	.	4A\	-tan-	.	2.ryy	2.ryy	4a/	.	4ee\	.
4F#\	.	.	.	.	4a/	.	4A\	.	.	.	.	4a/	.	4ee\	.
4F#\	.	4raa	4rc	.	4a/	.	4A\	.	.	.	.	4a/	.	4ee\	.
!	!	!	!	!	!	!	!	!	!	!	!	!	!	!LO:LB:g=original	!
=110	=110	=110	=110	=110	=110	=110	=110	=110	=110	=110	=110	=110	=110	=110	=110
!	!LO:DY:t=for	!	!	!	!	!LO:DY:t=f&colon;	!	!	!	!	!	!	!	!	!
2F#\	f	2d/	2A\	.	2a/	f	2A\	-dum	.	2.ryy	2.ryy	2a/	f	2ee\	f
*	*	*	*	*	*	*	*	*ij	*	*	*	*	*	*	*
!	!	!	!	!	!	!LO:DY:t=p&colon;	!	!	!	!	!	!	!	!	!
4r	.	8d/L	4A\yy	p	8b/L	p	8B\L	gus-	.	.	.	4r	.	8ff#\L	p
.	.	8c/J	.	.	8a/J	.	8A\J	.	.	.	.	.	.	8ee\J	.
*	*	*v	*v	*	*	*	*	*	*	*	*	*	*	*	*
!	!	!	!	!	!	!LO:LB:g=original	!	!	!	!	!	!	!	!
=111	=111	=111	=111	=111	=111	=111	=111	=111	=111	=111	=111	=111	=111	=111
4G\	p	4B/	.	4g/	.	4G\	-tan-	.	2.ryy	2.ryy	4d/	.	4dd\	.
4D\	.	4B/	.	4g/	.	4G\	.	.	.	.	4f#/	.	4dd\	.
4BB\	.	4B/	.	4g/	.	4G\	.	.	.	.	4a/	.	4dd\	.
=112	=112	=112	=112	=112	=112	=112	=112	=112	=112	=112	=112	=112	=112	=112
2GG/	.	2B/	pp	2g/	.	2G\	-dum	.	2.ryy	2.ryy	4f#/	.	2dd\	pp
.	.	.	.	.	.	.	.	.	.	.	4d/	.	.	.
4r	.	8d/L	.	8b/L	.	8B\L	gus-	.	.	.	4r	.	8ff#\L	.
.	.	8c/J	.	8a/J	.	8A\J	.	.	.	.	.	.	8ee\J	.
!LO:LB:g=original	!	!	!	!	!	!	!	!	!	!	!	!	!	!
=113	=113	=113	=113	=113	=113	=113	=113	=113	=113	=113	=113	=113	=113	=113
4G\	pp	4B/	.	4g/	.	4G\	-tan-	.	2.ryy	2.ryy	4d/	pp	4dd|\	.
4D\	.	4B/	.	4g/	.	4G\	.	.	.	.	4f#/	.	4dd|\	.
4BB\	.	4B/	.	4g/	.	4G\	.	.	.	.	4a/	.	4dd|\	.
=114	=114	=114	=114	=114	=114	=114	=114	=114	=114	=114	=114	=114	=114	=114
2GG/	.	2B/	.	2g/	.	2G\	-dum	.	2.ryy	2.ryy	4f#/	.	2dd\	.
*	*	*	*	*	*	*	*Xij	*	*	*	*	*	*	*
.	.	.	.	.	.	.	.	.	.	.	4d/	.	.	.
4r	.	4r	.	4r	.	4r	.	.	.	.	4r	.	4r	.
!	!	!LO:LB:g=original	!	!	!	!	!	!	!	!	!	!	!	!
=115	=115	=115	=115	=115	=115	=115	=115	=115	=115	=115	=115	=115	=115!|:	=115
*tremolo	*	*	*	*	*	*	*	*	*	*	*	*	*	*
!	!	!	!	!	!LO:DY:t=p&colon;	!	!	!	!	!	!	!	!	!
8G\L	p	4B/	.	4g/	p	0.r	.	.	2.ryy	2.ryy	2.d/	p	2dd\	p
8G\	.	.	.	.	.	.	.	.	.	.	.	.	.	.
8G\	.	(8d/L	.	8b/L	.	.	.	.	.	.	.	.	.	.
8G\	.	8B/)	.	8g/	.	.	.	.	.	.	.	.	.	.
8G\	.	(8e/	.	8cc/	.	.	.	.	.	.	.	.	4r	.
8G\J	.	8c/J)	.	8a/J	.	.	.	.	.	.	.	.	.	.
=116	=116	=116	=116	=116	=116	=116	=116	=116	=116	=116	=116	=116	=116:|!	=116
!	!	!	!	!	!LO:DY:t=f&colon;	!	!	!	!	!	!	!	!LO:TX:t=P:problem=takt zapisany powtórką	!
8G\L	f	2d/	f	2dd\	f	.	.	.	2.ryy	2.ryy	2d/	.	2dd\yy	pyy
8G\	.	.	.	.	.	.	.	.	.	.	.	.	.	.
8G\	.	.	.	.	.	.	.	.	.	.	.	.	.	.
8G\J	.	.	.	.	.	.	.	.	.	.	.	.	.	.
*Xtremolo	*	*	*	*	*	*	*	*	*	*	*	*	*	*
!	!	!	!	!	!LO:DY:t=p&colon;	!	!	!	!	!	!	!	!	!
8G\L	p	8d/L	.	8b\L	p	.	.	.	.	.	4r	.	4ryy	.
8G\J	.	8B/J	.	8g\J	.	.	.	.	.	.	.	.	.	.
!	!	!	!	!LO:LB:g=original	!	!	!	!	!	!	!	!	!	!
=117	=117	=117	=117	=117	=117	=117	=117	=117	=117	=117	=117	=117	=117	=117
*tremolo	*	*	*	*	*	*	*	*	*	*	*	*	*	*
8G\L	.	4e/	p	4cc\	.	.	.	.	2.ryy	2.ryy	2.r	.	2.r	.
8G\	.	.	.	.	.	.	.	.	.	.	.	.	.	.
8G\	.	4c/	.	4a\	.	.	.	.	.	.	.	.	.	.
8G\	.	.	.	.	.	.	.	.	.	.	.	.	.	.
8G\	.	4A/	.	4f#\	.	.	.	.	.	.	.	.	.	.
8G\J	.	.	.	.	.	.	.	.	.	.	.	.	.	.
!	!	!	!	!	!	!	!	!	!	!	!LO:LB:g=original	!	!	!
=118	=118	=118	=118	=118	=118	=118	=118	=118	=118	=118	=118	=118	=118	=118
!	!	!	!	!	!LO:DY:t=f&colon;	!	!	!	!	!	!	!	!	!
8G\L	f	8B/L	f	(8g/L	f	.	.	.	2.ryy	2.ryy	2dd\	f	2dd\	.
8G\	.	8A/	.	8f#/)	.	.	.	.	.	.	.	.	.	.
8G\	.	8B/	.	(8g/	.	.	.	.	.	.	.	.	.	.
8G\	.	8c/J	.	8a/J)	.	.	.	.	.	.	.	.	.	.
8G\	.	4B/	.	4g/	.	.	.	.	.	.	4r	.	4r	.
8G\J	.	.	.	.	.	.	.	.	.	.	.	.	.	.
=119	=119	=119	=119	=119	=119	=119	=119	=119	=119	=119	=119	=119	=119	=119
!	!	!	!	!	!LO:DY:t=p&colon;	!	!	!	!	!	!	!	!	!
8G\L	p	4B/	p	4g/	p	0.r	.	.	2.ryy	2.ryy	2.r	.	2.r	.
8G\	.	.	.	.	.	.	.	.	.	.	.	.	.	.
8G\	.	8d/L	.	8b/L	.	.	.	.	.	.	.	.	.	.
8G\	.	8B/	.	8g/	.	.	.	.	.	.	.	.	.	.
8G\	.	8e/	.	8cc/	.	.	.	.	.	.	.	.	.	.
8G\J	.	8c/J	.	8a/J	.	.	.	.	.	.	.	.	.	.
=120	=120	=120	=120	=120	=120	=120	=120	=120	=120	=120	=120	=120	=120	=120
!	!	!	!	!	!LO:DY:t=f&colon;	!	!	!	!	!	!	!	!	!
8G\L	f	2d/	f	2dd\	f	.	.	.	2.ryy	2.ryy	2.d/	.	2dd\	f
8G\	.	.	.	.	.	.	.	.	.	.	.	.	.	.
8G\	.	.	.	.	.	.	.	.	.	.	.	.	.	.
8G\J	.	.	.	.	.	.	.	.	.	.	.	.	.	.
*Xtremolo	*	*	*	*	*	*	*	*	*	*	*	*	*	*
8G\L	p	8d/L	p	8b\L	.	.	.	.	.	.	.	.	4r	.
8G\J	.	8B/J	.	8g\J	.	.	.	.	.	.	.	.	.	.
=121	=121	=121	=121	=121	=121	=121	=121	=121	=121	=121	=121	=121	=121	=121
*tremolo	*	*	*	*	*	*	*	*	*	*	*	*	*	*
!	!	!	!	!	!LO:DY:t=p&colon;	!	!	!	!	!	!	!	!	!
8G\L	.	4e/	.	4cc\	p	.	.	.	2.ryy	2.ryy	2.r	.	2.r	.
8G\	.	.	.	.	.	.	.	.	.	.	.	.	.	.
8G\	.	4c/	.	4a\	.	.	.	.	.	.	.	.	.	.
8G\	.	.	.	.	.	.	.	.	.	.	.	.	.	.
8G\	.	4A/	.	4f#\	.	.	.	.	.	.	.	.	.	.
8G\J	.	.	.	.	.	.	.	.	.	.	.	.	.	.
*Xtremolo	*	*	*	*	*	*	*	*	*	*	*	*	*	*
!LO:LB:g=original	!	!	!	!	!	!	!	!	!	!	!	!	!LO:LB:g=original	!
=122	=122	=122	=122	=122	=122	=122	=122	=122	=122	=122	=122	=122	=122	=122
!	!	!	!	!	!	!	!	!	!	!	!	!	!LO:TX:t=P:problem=dwa wykreślone błędne takty	!
4G\	f	4.B/	f	4.g/	.	.	.	.	2.ryy	2.ryy	4f#/	p	4dd\	.
4r	.	.	.	.	.	.	.	.	.	.	4r	.	4r	.
!	!	!	!	!	!LO:DY:t=f&colon;	!	!	!	!	!	!	!	!	!
.	.	8d/	.	8b/	f	.	.	.	.	.	.	.	.	.
4D\	.	8c/L	.	8a/L	.	.	.	.	.	.	4a/	.	4eeT\	pp
.	.	8A/J	.	8f#/J	.	.	.	.	.	.	.	.	.	.
=123	=123	=123	=123	=123	=123	=123	=123	=123	=123	=123	=123	=123	=123	=123
!LO:TX:t=P:pp=pianissime:problem	!	!	!	!	!LO:DY:t=pianis	!	!	!	!	!	!	!	!	!
4G\	pp	4.B/	p	4.g/	pp	1.r	.	.	2.ryy	2.ryy	4f#/	.	4dd\	.
4r	.	.	.	.	.	.	.	.	.	.	4r	.	4r	.
.	.	8d/	.	8b/	.	.	.	.	.	.	.	.	.	.
!	!	!	!	!	!	!	!	!	!	!	!LO:TX:t=P:pp=pianis:problem	!	!	!
4D\	.	8c/L	.	8a/L	.	.	.	.	.	.	4a/	pp	4eeT\	.
.	.	8A/J	.	8f#/J	.	.	.	.	.	.	.	.	.	.
!	!	!LO:LB:g=original	!	!	!	!	!	!	!	!	!	!	!	!
=124	=124	=124	=124	=124	=124	=124	=124	=124	=124	=124	=124	=124	=124	=124
4G\	.	4B/	.	4g/	.	.	.	.	2.ryy	2.ryy	4f#/	.	4dd|\	.
4GG/	.	4B/	.	4g/	.	.	.	.	.	.	4f#/	.	4dd|\	.
4GG/	.	4B/	.	4g/	.	.	.	.	.	.	4f#/	.	4dd|\	.
=125	=125	=125	=125	=125	=125	=125	=125	=125	=125	=125	=125	=125	=125	=125
2GG/	.	2B/	.	2g/	.	2.r	.	.	2.ryy	2.ryy	2d/	.	2dd\	.
!LO:TX:b:i:t=Seqe Coro	!	!LO:TX:b:i:t=Seqe Coro	!	!LO:TX:b:i:t=Seqe Coro	!	!	!	!	!	!	!	!	!LO:TX:b:i:t=Seqe Coro in D&colon;	!
4r	.	4r	.	4r	.	.	.	.	.	.	4r	.	4r	.
==	==	==	==	==	==	==	==	==	==	==	==	==	==	==
*-	*-	*-	*-	*-	*-	*-	*-	*-	*-	*-	*-	*-	*-	*-
!!!system-decoration: [(s1,s2,s3,s4,s5,s6,s7,s8)]
!!!RDF**kern: | = vertical stroke
!!!RDF**dynam: p = p:
!!!RDF**dynam: f = f:
!!!RDF**dynam: pp = pianiſ
!!!ENC: Mateusz Solarz
!!!END: 2020-10-06
!!!ENC: Leszek Kubiak
!!!END: 2022-01-27
